static/assets/images/protocols/balancer-mono.svg

<svg width="320" height="267" viewBox="0 0 320 267" fill="none" xmlns="http://www.w3.org/2000/svg">
<path d="M235.387 163.097C285.747 172.402 320 190.718 320 211.798C320 242.303 248.36 267 160 267C71.64 267 0 242.289 0 211.798C0 190.718 34.2667 172.402 84.6133 163.097C106.493 168.784 132.333 172.055 160 172.055C187.667 172.055 213.507 168.784 235.387 163.11V163.097ZM216.107 73.692C258.88 80.8209 288.347 95.8129 288.347 113.181C288.347 137.412 230.88 157.063 160 157.063C89.12 157.063 31.6533 137.412 31.6533 113.181C31.6533 95.8263 61.12 80.8209 103.893 73.692C120.333 77.8706 139.507 80.2602 160 80.2602C180.493 80.2602 199.667 77.8572 216.107 73.692ZM160.587 0C213.667 0 256.707 14.8719 256.707 33.2281C256.707 51.5711 213.667 66.443 160.587 66.443C107.507 66.443 64.4667 51.5711 64.4667 33.2281C64.4667 14.8719 107.507 0 160.587 0Z" fill="black"/>
</svg>

<svg xmlns="http://www.w3.org/2000/svg" fill="none" viewBox="0 0 320 267"><path fill="#000" d="M235.387 163.097c50.36 9.305 84.613 27.621 84.613 48.701C320 242.303 248.36 267 160 267S0 242.289 0 211.798c0-21.08 34.267-39.396 84.613-48.701 21.88 5.687 47.72 8.958 75.387 8.958s53.507-3.271 75.387-8.945zm-19.28-89.405c42.773 7.129 72.24 22.12 72.24 39.489 0 24.231-57.467 43.882-128.347 43.882S31.653 137.412 31.653 113.181c0-17.355 29.467-32.36 72.24-39.489 16.44 4.179 35.614 6.568 56.107 6.568s39.667-2.403 56.107-6.568M160.587 0c53.08 0 96.12 14.872 96.12 33.228 0 18.343-43.04 33.215-96.12 33.215s-96.12-14.872-96.12-33.215C64.467 14.872 107.507 0 160.587 0"/></svg>
